flaticon/constructions/hammer-5.svg

<svg xmlns="http://www.w3.org/2000/svg" width="32" height="32" viewBox="0 0 24 24">
    <path d="M 18 1.160156 C 17.953125 1.15625 17.90625 1.152344 17.859375 1.144531 C 17.328125 1.070312 16.753906 0.996094 16.039062 0.960938 C 16 0.960938 15.960938 0.964844 15.921875 0.972656 C 14.746094 0.890625 13.570312 0.84375 12.398438 0.832031 L 12.398438 0.398438 C 12.398438 0.160156 12.238281 0 12 0 C 11.761719 0 11.601562 0.160156 11.601562 0.398438 L 11.601562 0.832031 C 10.429688 0.839844 9.261719 0.886719 8.101562 0.96875 C 8.070312 0.964844 8.035156 0.960938 8 0.960938 C 7.238281 1.039062 6.640625 1.078125 6.039062 1.160156 C 5.558594 1.199219 5.199219 1.601562 5.199219 2.078125 L 5.199219 3.519531 C 5.199219 4 5.558594 4.398438 6.039062 4.480469 C 7.871094 4.667969 9.734375 4.785156 11.601562 4.796875 L 11.601562 11.199219 L 11.199219 11.199219 C 10.960938 11.199219 10.800781 11.359375 10.800781 11.601562 L 10.800781 12.679688 C 10.800781 13.199219 10.679688 13.71875 10.441406 14.199219 C 10.160156 14.800781 10 15.441406 10 16.082031 L 10 22 C 10 23.121094 10.878906 24 12 24 C 13.121094 24 14 23.121094 14 22 L 14 16.121094 C 14 15.480469 13.839844 14.800781 13.558594 14.238281 C 13.320312 13.761719 13.199219 13.238281 13.199219 12.71875 L 13.199219 11.601562 C 13.199219 11.359375 13.039062 11.199219 12.800781 11.199219 L 12.398438 11.199219 L 12.398438 4.796875 C 13.597656 4.789062 14.796875 4.734375 15.996094 4.640625 C 16 4.640625 16 4.640625 16 4.640625 C 16.003906 4.640625 16.011719 4.640625 16.015625 4.636719 C 16.449219 4.605469 16.882812 4.5625 17.316406 4.515625 C 17.550781 4.496094 17.777344 4.46875 18 4.441406 C 18.441406 4.398438 18.800781 4 18.800781 3.519531 L 18.800781 2.078125 C 18.800781 1.601562 18.441406 1.199219 18 1.160156 Z M 12.839844 14.558594 C 13.078125 15.039062 13.199219 15.558594 13.199219 16.078125 L 13.199219 22 C 13.199219 22.679688 12.679688 23.199219 12 23.199219 C 11.320312 23.199219 10.800781 22.679688 10.800781 22 L 11.601562 22 C 11.839844 22 12 21.839844 12 21.601562 C 12 21.359375 11.839844 21.199219 11.601562 21.199219 L 10.800781 21.199219 L 10.800781 20.398438 L 11.601562 20.398438 C 11.839844 20.398438 12 20.238281 12 20 C 12 19.761719 11.839844 19.601562 11.601562 19.601562 L 10.800781 19.601562 L 10.800781 16.121094 C 10.800781 15.601562 10.921875 15.078125 11.160156 14.601562 C 11.441406 14 11.601562 13.359375 11.601562 12.71875 L 11.601562 12 L 12.398438 12 L 12.398438 12.71875 C 12.398438 13.359375 12.558594 14 12.839844 14.558594 Z M 12.09375 4.007812 C 12.066406 4.003906 12.03125 4 12 4 C 11.964844 4 11.933594 4.003906 11.90625 4.007812 C 10.734375 4.007812 9.5625 3.964844 8.398438 3.886719 L 8.398438 1.722656 C 9.582031 1.644531 10.769531 1.601562 11.960938 1.601562 C 13.164062 1.601562 14.382812 1.644531 15.601562 1.726562 L 15.601562 3.886719 C 14.433594 3.964844 13.261719 4.007812 12.09375 4.007812 Z M 6 2.078125 C 6 2 6.078125 1.960938 6.121094 1.921875 C 6.601562 1.878906 7.078125 1.839844 7.601562 1.800781 L 7.601562 3.800781 C 7.039062 3.761719 6.601562 3.71875 6.121094 3.679688 C 6.078125 3.640625 6 3.601562 6 3.519531 Z M 18 3.519531 C 18 3.601562 17.960938 3.640625 17.878906 3.640625 C 17.441406 3.71875 16.960938 3.761719 16.398438 3.800781 L 16.398438 1.800781 C 16.960938 1.839844 17.441406 1.878906 17.878906 1.921875 C 17.960938 1.960938 18 2 18 2.078125 Z M 18 3.519531"/>
</svg>

<svg xmlns="http://www.w3.org/2000/svg" width="32" height="32" viewBox="0 0 24 24">
    <path d="M18 1.16c-.047-.004-.094-.008-.14-.015A19.382 19.382 0 0 0 16.04.96a.596.596 0 0 0-.118.012 59.14 59.14 0 0 0-3.524-.141V.398C12.398.16 12.238 0 12 0c-.238 0-.398.16-.398.398v.434a54.82 54.82 0 0 0-3.5.137A.825.825 0 0 0 8 .96c-.762.078-1.36.117-1.96.2a.916.916 0 0 0-.84.917V3.52c0 .48.359.878.84.96 1.831.188 3.694.305 5.562.317v6.402h-.403c-.238 0-.398.16-.398.403v1.078c0 .52-.121 1.039-.36 1.52A4.462 4.462 0 0 0 10 16.081V22c0 1.121.879 2 2 2s2-.879 2-2v-5.879c0-.64-.16-1.32-.441-1.883-.239-.476-.36-1-.36-1.52v-1.116c0-.243-.16-.403-.398-.403h-.403V4.797c1.2-.008 2.399-.063 3.598-.156H16c.004 0 .012 0 .016-.004a36.57 36.57 0 0 0 1.3-.121c.235-.02.461-.047.684-.075.441-.043.8-.441.8-.921V2.078c0-.476-.359-.879-.8-.918zM12.84 14.56c.238.48.36 1 .36 1.52V22c0 .68-.52 1.2-1.2 1.2-.68 0-1.2-.52-1.2-1.2h.802c.238 0 .398-.16.398-.398 0-.243-.16-.403-.398-.403H10.8v-.8h.8c.239 0 .399-.16.399-.399 0-.238-.16-.398-.398-.398H10.8v-3.48c0-.52.12-1.044.36-1.52a4.462 4.462 0 0 0 .44-1.883V12h.797v.719c0 .64.16 1.281.442 1.84zm-.746-10.551a.648.648 0 0 0-.188 0c-1.172 0-2.344-.043-3.508-.121V1.723a54.075 54.075 0 0 1 3.563-.121c1.203 0 2.422.043 3.64.125v2.16c-1.167.078-2.34.12-3.507.12zM6 2.078c0-.078.078-.117.121-.156a99.4 99.4 0 0 1 1.48-.121v2c-.562-.04-1-.082-1.48-.121C6.078 3.64 6 3.602 6 3.52zM18 3.52c0 .082-.04.12-.121.12-.438.079-.918.122-1.48.16v-2c.562.04 1.042.079 1.48.122.082.039.121.078.121.156zm0 0"/>
</svg>
